X: 18924
T: Indian Ate The Woodchuck
R: barndance
M: 4/4
K: Dmajor
(EA2)(A A)Bcd|efec d2cd|e2A2 ABcA|(BG)EF G4|(EA2)(A A)Bcd|
efec d2 cd|ea2(b a)ged|c2A2A4:|
|:(g3a g2) ba|gedc d2 (cd)|e2A2 ABcA|BGEF (G4|G) g2a g2 (ba)|gedc d2cd|ea2 (b a)ged|c2A2A4:|

